images/PERL.svg

<svg height="250" viewBox="0 0 250 250" width="250" xmlns="http://www.w3.org/2000/svg" xmlns:xlink="http://www.w3.org/1999/xlink"><linearGradient id="a"><stop offset="0" stop-color="#17e2cf"/><stop offset="1" stop-color="#5181fd"/></linearGradient><linearGradient id="b" gradientUnits="userSpaceOnUse" x1="-11.19117983932" x2="133.83402268462" xlink:href="#a" y1="78.13019986078" y2="264.060746989"/><linearGradient id="c" gradientUnits="userSpaceOnUse" x1="-33.6466992355" x2="111.47255883798" xlink:href="#a" y1="90.40694213062" y2="276.23505870984"/><g fill-rule="evenodd"><path d="m247.035156 112.957031-40.488281-69.910156c-.332031-.964844-.9375-1.8125-1.679687-2.59375-1.933594-2.761719-5.230469-4.425781-8.828126-4.425781-3.621093 0-6.574218 1.664062-8.859374 4.355468l-1.628907 2.761719-43.519531 75.527344-1.980469 3.476563c-.21875 1.132812-.710937 2.386718-.710937 3.746093 0 1.378907.492187 2.546875.710937 3.839844l1.980469 3.347656 24.867188 43.21875c1.253906 1.8125 1.566406 3.722657 1.566406 5.527344 0 3.929687-1.921875 7.714844-5.539063 9.730469-5.28125 3.136718-12.261719 1.28125-15.21875-4.0625l-12.757812-21.648438-.902344-1.769531c-1.972656-2.742187-5.34375-4.597656-9.082031-4.597656-3.65625 0-7.078125 1.855469-9.003906 4.597656l-.917969 1.769531-31.703125 54.527344-.113282.402344c-.957031 1.746094-1.765624 3.753906-1.765624 5.957031 0 6.15625 5.203124 11.175781 11.324218 11.175781h81.929688c8.03125 0 18.339844-5.816406 22.226562-12.894531l50.09375-86.179687c3.953125-7.109376 3.953125-18.785157 0-25.878907zm0 0" fill="url(#b)"/><path d="m109.859375 129.738281c.300781-1.292969.789063-2.460937.789063-3.84375 0-1.386719-.488282-2.609375-.789063-3.742187l-1.886719-3.472656-24.886718-43.160157c-1.257813-1.820312-1.628907-3.769531-1.628907-5.675781 0-3.832031 1.980469-7.652344 5.535157-9.710938 5.359374-3.066406 12.195312-1.183593 15.300781 4.183594l12.75 21.570313.917969 1.800781c1.925781 2.855469 5.347656 4.769531 9.003906 4.769531 3.738281 0 7.105468-1.914062 9.078125-4.769531l.90625-1.78125 31.648437-54.5625.136719-.25c.996094-1.78125 1.746094-3.886719 1.746094-6.15625 0-6.167969-5.121094-11.046875-11.003907-11.046875h-82.269531c-7.996093 0-18.300781 5.730469-22.183593 12.859375l-49.976563 86.207031c-4.0625 7.09375-4.0625 18.769531 0 25.878907l40.414063 69.980468c.4375.871094.921874 1.792969 1.558593 2.574219 2.03125 2.664063 5.34375 4.429687 8.933594 4.429687 3.523437 0 6.609375-1.6875 8.832031-4.386718l1.671875-2.773438 43.515625-75.578125zm0 0" fill="url(#c)"/></g></svg>

<svg xmlns="http://www.w3.org/2000/svg" xmlns:xlink="http://www.w3.org/1999/xlink" width="250px" height="250px" viewBox="0 0 250 250" version="1.1">
<defs>
<linearGradient id="linear0" gradientUnits="userSpaceOnUse" x1="-3.22306" y1="22.501499" x2="38.544201" y2="76.0495" gradientTransform="matrix(3.472222,0,0,3.472222,0,0)">
<stop offset="0" style="stop-color:rgb(9.019608%,88.627452%,81.176472%);stop-opacity:1;"/>
<stop offset="1" style="stop-color:rgb(31.764707%,50.588238%,99.215686%);stop-opacity:1;"/>
</linearGradient>
<linearGradient id="linear1" gradientUnits="userSpaceOnUse" x1="-9.69025" y1="26.037201" x2="32.104099" y2="79.555702" gradientTransform="matrix(3.472222,0,0,3.472222,0,0)">
<stop offset="0" style="stop-color:rgb(9.019608%,88.627452%,81.176472%);stop-opacity:1;"/>
<stop offset="1" style="stop-color:rgb(31.764707%,50.588238%,99.215686%);stop-opacity:1;"/>
</linearGradient>
</defs>
<g id="surface1">
<path style=" stroke:none;fill-rule:evenodd;fill:url(#linear0);" d="M 247.035156 112.957031 L 206.546875 43.046875 C 206.214844 42.082031 205.609375 41.234375 204.867188 40.453125 C 202.933594 37.691406 199.636719 36.027344 196.039062 36.027344 C 192.417969 36.027344 189.464844 37.691406 187.179688 40.382812 L 185.550781 43.144531 L 142.03125 118.671875 L 140.050781 122.148438 C 139.832031 123.28125 139.339844 124.535156 139.339844 125.894531 C 139.339844 127.273438 139.832031 128.441406 140.050781 129.734375 L 142.03125 133.082031 L 166.898438 176.300781 C 168.152344 178.113281 168.464844 180.023438 168.464844 181.828125 C 168.464844 185.757812 166.542969 189.542969 162.925781 191.558594 C 157.644531 194.695312 150.664062 192.839844 147.707031 187.496094 L 134.949219 165.847656 L 134.046875 164.078125 C 132.074219 161.335938 128.703125 159.480469 124.964844 159.480469 C 121.308594 159.480469 117.886719 161.335938 115.960938 164.078125 L 115.042969 165.847656 L 83.339844 220.375 L 83.226562 220.777344 C 82.269531 222.523438 81.460938 224.53125 81.460938 226.734375 C 81.460938 232.890625 86.664062 237.910156 92.785156 237.910156 L 174.714844 237.910156 C 182.746094 237.910156 193.054688 232.09375 196.941406 225.015625 L 247.035156 138.835938 C 250.988281 131.726562 250.988281 120.050781 247.035156 112.957031 Z M 247.035156 112.957031 "/>
<path style=" stroke:none;fill-rule:evenodd;fill:url(#linear1);" d="M 109.859375 129.738281 C 110.160156 128.445312 110.648438 127.277344 110.648438 125.894531 C 110.648438 124.507812 110.160156 123.285156 109.859375 122.152344 L 107.972656 118.679688 L 83.085938 75.519531 C 81.828125 73.699219 81.457031 71.75 81.457031 69.84375 C 81.457031 66.011719 83.4375 62.191406 86.992188 60.132812 C 92.351562 57.066406 99.1875 58.949219 102.292969 64.316406 L 115.042969 85.886719 L 115.960938 87.6875 C 117.886719 90.542969 121.308594 92.457031 124.964844 92.457031 C 128.703125 92.457031 132.070312 90.542969 134.042969 87.6875 L 134.949219 85.90625 L 166.597656 31.34375 L 166.734375 31.09375 C 167.730469 29.3125 168.480469 27.207031 168.480469 24.9375 C 168.480469 18.769531 163.359375 13.890625 157.476562 13.890625 L 75.207031 13.890625 C 67.210938 13.890625 56.90625 19.621094 53.023438 26.75 L 3.046875 112.957031 C -1.015625 120.050781 -1.015625 131.726562 3.046875 138.835938 L 43.460938 208.816406 C 43.898438 209.6875 44.382812 210.609375 45.019531 211.390625 C 47.050781 214.054688 50.363281 215.820312 53.953125 215.820312 C 57.476562 215.820312 60.5625 214.132812 62.785156 211.433594 L 64.457031 208.660156 L 107.972656 133.082031 Z M 109.859375 129.738281 "/>
</g>
</svg>
